source/img/icon_vkontakte.svg

<svg width="30" height="22" viewBox="0 0 30 22" fill="none" xmlns="http://www.w3.org/2000/svg">
<path d="M0.0914307 5.48988C0.0914307 4.63485 0.643326 4.17381 1.74712 4.10674L6.00052 4.13189C6.28599 4.13189 6.47629 4.25763 6.57145 4.50911C7.00916 5.76651 7.4992 6.85206 8.04158 7.76577C8.58397 8.67948 9.29287 9.7315 10.1683 10.9218C10.2444 11.0727 10.3681 11.1482 10.5394 11.1482C10.6726 11.1482 10.7773 11.0895 10.8534 10.9721L10.939 10.6955L10.9676 6.34491C10.9676 6.04313 10.8867 5.84195 10.7249 5.74136C10.5632 5.64077 10.2634 5.56532 9.82573 5.51503C9.48318 5.46473 9.3119 5.28031 9.3119 4.96177C9.3119 4.89471 9.32141 4.84442 9.34044 4.81089C9.74009 3.72114 10.8819 3.17627 12.766 3.17627L14.3646 3.15112C15.0878 3.15112 15.6872 3.31039 16.163 3.62893C16.6388 3.94747 16.8767 4.45043 16.8767 5.13781V10.8464C17.0099 10.9302 17.1336 10.9721 17.2478 10.9721C17.5332 10.9721 17.7806 10.8212 17.99 10.5195C20.0834 7.93761 21.2157 6.21079 21.387 5.33899C21.387 5.32223 21.406 5.28031 21.4441 5.21325C21.5773 4.96177 21.7962 4.74383 22.1007 4.55941C22.4051 4.37499 22.6716 4.24925 22.9 4.18219C22.9761 4.14866 23.0617 4.13189 23.1569 4.13189H27.5816L27.867 4.15704C28.2476 4.15704 28.5426 4.31631 28.752 4.63485C28.8281 4.73544 28.8804 4.84442 28.909 4.96177C28.9375 5.07913 28.9565 5.19649 28.966 5.31384C28.9756 5.4312 28.9803 5.49826 28.9803 5.51503V5.69106C28.8471 6.37844 28.5093 7.11192 27.9669 7.89151C27.4245 8.67109 26.7347 9.51355 25.8973 10.4189C25.06 11.3242 24.5366 11.9194 24.3273 12.2044C24.156 12.4056 24.0704 12.59 24.0704 12.7576C24.0704 12.8918 24.1465 13.0426 24.2987 13.2103L28.4665 17.8375C28.6949 18.1058 28.809 18.3992 28.809 18.7177C28.809 19.1033 28.6378 19.4218 28.2952 19.6733C27.9527 19.9248 27.5435 20.0673 27.0677 20.1008L26.5824 20.126H22.2434C22.2244 20.126 22.1863 20.1302 22.1292 20.1385C22.0721 20.1469 22.034 20.1511 22.015 20.1511C21.5963 20.1511 21.2062 19.9919 20.8446 19.6733C20.7114 19.5392 19.8169 18.55 18.1613 16.7059C18.0661 16.5885 17.9329 16.4795 17.7616 16.3789C17.6855 16.6472 17.5856 17.0328 17.4619 17.5357C17.3382 18.0387 17.2478 18.3992 17.1907 18.6171L17.105 19.0446C16.9147 19.6314 16.5151 19.9835 15.9061 20.1008L15.5065 20.126H12.7089C11.1293 20.126 9.55454 19.4889 7.98449 18.2147C6.41444 16.9406 5.0014 15.2934 3.74536 13.2732C2.48932 11.2529 1.31892 8.90162 0.234162 6.21917C0.139008 6.00122 0.0914307 5.75813 0.0914307 5.48988ZM17.2478 12.0032C16.8481 12.0032 16.4865 11.9068 16.163 11.714C15.8395 11.5212 15.6777 11.2571 15.6777 10.9218V5.13781C15.6777 4.8025 15.5826 4.5636 15.3923 4.42109C15.202 4.27859 14.8689 4.20734 14.3931 4.20734L12.766 4.25763C11.9477 4.25763 11.3292 4.38337 10.9105 4.63485C11.7479 4.98692 12.1665 5.55694 12.1665 6.34491V10.7709C12.1285 11.1901 11.9382 11.538 11.5956 11.8146C11.253 12.0912 10.8724 12.2295 10.4538 12.2295C9.88282 12.2295 9.44511 11.9864 9.14062 11.5002C7.65621 9.52193 6.55242 7.64422 5.82924 5.8671L5.57233 5.21325L1.77566 5.18811C1.52826 5.18811 1.39029 5.20068 1.36174 5.22583C1.3332 5.25098 1.31892 5.32223 1.31892 5.43958C1.31892 5.59047 1.33795 5.74974 1.37602 5.9174L1.97549 7.32568C3.57408 10.9637 5.31065 13.8306 7.18519 15.9263C9.05974 18.0219 10.901 19.0698 12.7089 19.0698H15.5635C15.6777 19.0698 15.7634 19.0404 15.8205 18.9817C15.8776 18.9231 15.9251 18.8099 15.9632 18.6422L16.0203 18.3908L16.5627 16.1778C16.7149 15.876 16.8481 15.6748 16.9623 15.5742C17.1717 15.3898 17.4191 15.2976 17.7045 15.2976C18.1613 15.2976 18.6275 15.5407 19.1033 16.0269L21.5297 18.7428C21.682 18.9608 21.8437 19.0698 22.015 19.0698H26.7252C27.2961 19.0698 27.5816 18.944 27.5816 18.6925C27.5816 18.6087 27.553 18.5249 27.4959 18.4411L23.3567 13.8893C23.0332 13.5372 22.8714 13.16 22.8714 12.7576C22.8714 12.3553 23.0237 11.9697 23.3281 11.6008C23.5755 11.2655 24.0561 10.7081 24.7697 9.92849C25.4834 9.1489 26.1067 8.41961 26.6395 7.74062C27.1724 7.06163 27.5245 6.4455 27.6957 5.89225L27.7814 5.56532C27.7623 5.53179 27.7528 5.47731 27.7528 5.40186C27.7528 5.32642 27.7433 5.26355 27.7243 5.21325H23.2425C22.957 5.31384 22.7287 5.46473 22.5574 5.66592L22.3861 6.14373C21.9103 7.30053 20.6638 9.08603 18.6465 11.5002C18.2469 11.8355 17.7806 12.0032 17.2478 12.0032Z" fill="#666666"/>
</svg>

<svg width="30" height="22" fill="none" xmlns="http://www.w3.org/2000/svg"><path d="M.091 5.49c0-.855.552-1.316 1.656-1.383l4.254.025c.285 0 .475.126.57.377.438 1.258.928 2.343 1.47 3.257.543.913 1.252 1.966 2.127 3.156.076.15.2.226.371.226a.356.356 0 0 0 .314-.176l.086-.277.029-4.35c0-.302-.081-.503-.243-.604-.162-.1-.462-.176-.9-.226-.342-.05-.513-.235-.513-.553 0-.067.01-.118.028-.151.4-1.09 1.542-1.635 3.426-1.635l1.599-.025c.723 0 1.322.16 1.798.478.476.318.714.821.714 1.509v5.708a.707.707 0 0 0 .37.126c.286 0 .534-.15.743-.452 2.093-2.582 3.226-4.31 3.397-5.181a.41.41 0 0 1 .057-.126c.133-.251.352-.47.657-.654.304-.184.57-.31.799-.377a.63.63 0 0 1 .257-.05h4.425l.285.025a1 1 0 0 1 .885.478c.076.1.128.21.157.327.029.117.047.234.057.352.01.117.014.184.014.201v.176c-.133.687-.47 1.42-1.013 2.2-.543.78-1.232 1.623-2.07 2.528-.837.905-1.36 1.5-1.57 1.785-.171.202-.257.386-.257.554 0 .134.076.285.229.452l4.168 4.627c.228.269.342.562.342.88 0 .386-.171.705-.514.956-.342.252-.752.394-1.227.428l-.486.025h-4.339c-.019 0-.057.004-.114.012a.988.988 0 0 1-.114.013c-.419 0-.809-.16-1.17-.478-.134-.134-1.028-1.123-2.684-2.967a1.457 1.457 0 0 0-.4-.327c-.075.268-.175.654-.3 1.157a83.81 83.81 0 0 1-.27 1.081l-.086.428c-.19.586-.59.938-1.199 1.056l-.4.025H12.71c-1.58 0-3.154-.637-4.725-1.911-1.57-1.274-2.983-2.922-4.239-4.942C2.49 11.253 1.32 8.902.235 6.22a1.804 1.804 0 0 1-.144-.73Zm17.157 6.513c-.4 0-.762-.096-1.085-.289-.324-.193-.485-.457-.485-.792V5.138c0-.335-.095-.574-.286-.717-.19-.142-.523-.214-.999-.214l-1.627.05c-.818 0-1.437.126-1.855.378.837.352 1.255.922 1.255 1.71v4.426c-.037.42-.228.767-.57 1.044a1.774 1.774 0 0 1-1.142.415c-.571 0-1.009-.244-1.313-.73-1.485-1.978-2.589-3.856-3.312-5.633l-.257-.654-3.796-.025c-.248 0-.386.013-.414.038-.029.025-.043.096-.043.214 0 .15.019.31.057.477l.6 1.409c1.598 3.638 3.335 6.505 5.21 8.6 1.874 2.096 3.715 3.144 5.523 3.144h2.854c.115 0 .2-.03.257-.088.058-.059.105-.172.143-.34l.057-.251.543-2.213c.152-.302.285-.503.4-.604.209-.184.456-.276.741-.276.457 0 .924.243 1.4.729l2.426 2.716c.152.218.314.327.485.327h4.71c.571 0 .857-.126.857-.378a.444.444 0 0 0-.086-.25l-4.14-4.553c-.323-.352-.485-.729-.485-1.131 0-.403.153-.788.457-1.157.248-.336.728-.893 1.442-1.673a38.176 38.176 0 0 0 1.87-2.187c.532-.68.884-1.295 1.056-1.849l.085-.327a.347.347 0 0 1-.028-.163.538.538 0 0 0-.029-.189h-4.482c-.285.1-.513.252-.685.453l-.17.478c-.477 1.157-1.723 2.942-3.74 5.356a2.11 2.11 0 0 1-1.4.503Z" fill="#666"/></svg>
